public/img/download-invoice.svg

<svg width="16" height="17" viewBox="0 0 16 17" fill="none" xmlns="http://www.w3.org/2000/svg">
<path fill-rule="evenodd" clip-rule="evenodd" d="M15.2 11.7C15.6103 11.7 15.9484 12.0088 15.9946 12.4067L16 12.5V14.1C16 15.3781 15.0009 16.4229 13.741 16.4959L13.6 16.5H2.4C1.12186 16.5 0.0770712 15.5009 0.0040741 14.241L0 14.1V12.5C0 12.0582 0.358172 11.7 0.8 11.7C1.21027 11.7 1.54841 12.0088 1.59462 12.4067L1.6 12.5V14.1C1.6 14.5103 1.90883 14.8484 2.3067 14.8946L2.4 14.9H13.6C14.0103 14.9 14.3484 14.5912 14.3946 14.1933L14.4 14.1V12.5C14.4 12.0582 14.7582 11.7 15.2 11.7ZM8 0.5C8.44183 0.5 8.8 0.858172 8.8 1.3V8.968L9.83432 7.93431C10.1227 7.64593 10.5765 7.62374 10.8903 7.86776L10.9657 7.93431C11.2541 8.2227 11.2763 8.67649 11.0322 8.99032L10.9657 9.06569L8.56569 11.4657L8.53052 11.4988L8.47624 11.5429L8.38725 11.6003L8.29707 11.643L8.21279 11.6713L8.09398 11.6945L8 11.7L7.93981 11.6978L7.83942 11.6838L7.75029 11.6602L7.66142 11.6251L7.58343 11.5832L7.5066 11.5298C7.48123 11.5099 7.45709 11.4885 7.43431 11.4657L5.03431 9.06569C4.7219 8.75327 4.7219 8.24673 5.03431 7.93431C5.3227 7.64593 5.77649 7.62374 6.09032 7.86776L6.16569 7.93431L7.2 8.968V1.3C7.2 0.858172 7.55817 0.5 8 0.5Z" fill="#AC0108"/>
</svg>

<svg xmlns="http://www.w3.org/2000/svg" width="16" height="17" fill="none" xmlns:v="https://vecta.io/nano"><path fill-rule="evenodd" d="M15.2 11.7a.8.8 0 0 1 .795.707L16 12.5v1.6a2.4 2.4 0 0 1-2.259 2.396l-.141.004H2.4a2.4 2.4 0 0 1-2.396-2.259L0 14.1v-1.6a.8.8 0 0 1 .8-.8.8.8 0 0 1 .795.707l.005.093v1.6a.8.8 0 0 0 .707.795l.093.005h11.2a.8.8 0 0 0 .795-.707l.005-.093v-1.6a.8.8 0 0 1 .8-.8zM8 .5a.8.8 0 0 1 .8.8v7.668l1.034-1.034a.8.8 0 0 1 1.056-.067l.075.067a.8.8 0 0 1 .066 1.056l-.066.075-2.4 2.4-.035.033-.054.044-.089.057-.09.043-.084.028-.119.023L8 11.7l-.06-.002-.1-.014-.089-.024-.089-.035-.078-.042-.077-.053a.8.8 0 0 1-.072-.064l-2.4-2.4A.8.8 0 0 1 6.09 7.868l.075.067L7.2 8.968V1.3A.8.8 0 0 1 8 .5z" fill="#ac0108"/></svg>
